icons/zodiac-leo.svg

<svg width="24" height="24" viewBox="0 0 24 24" fill="none" xmlns="http://www.w3.org/2000/svg">
<path fill-rule="evenodd" clip-rule="evenodd" d="M11 4C9.34315 4 8 5.34315 8 7C8 8.20858 8.3715 9.2262 8.84517 10.5237C8.87629 10.609 8.90786 10.6954 8.93979 10.7833C9.44918 12.1841 10 13.8191 10 16C10 18.2091 8.20914 20 6 20C3.79086 20 2 18.2091 2 16C2 13.7909 3.79086 12 6 12C6.46535 12 6.91215 12.0795 7.32756 12.2256C7.24164 11.9702 7.15164 11.7182 7.06021 11.4667C7.02234 11.3626 6.98388 11.2578 6.94516 11.1524C6.49084 9.91469 6 8.57755 6 7C6 4.23858 8.23858 2 11 2C13.7614 2 16 4.23858 16 7C16 9.16252 15.4568 10.792 14.9596 12.2834L14.9487 12.3162C14.4488 13.8158 14 15.1784 14 17C14 17.7957 14.3161 18.5587 14.8787 19.1213C15.4413 19.6839 16.2044 20 17 20C17.7956 20 18.5587 19.6839 19.1213 19.1213C19.6839 18.5587 20 17.7956 20 17C20 16.4477 20.4477 16 21 16C21.5523 16 22 16.4477 22 17C22 18.3261 21.4732 19.5979 20.5355 20.5355C19.5979 21.4732 18.3261 22 17 22C15.6739 22 14.4021 21.4732 13.4645 20.5355C12.5268 19.5979 12 18.3261 12 17C12 14.8375 12.5432 13.208 13.0404 11.7166L13.0513 11.6838C13.5512 10.1842 14 8.82162 14 7C14 5.34315 12.6569 4 11 4ZM8 16C8 14.8954 7.10457 14 6 14C4.89543 14 4 14.8954 4 16C4 17.1046 4.89543 18 6 18C7.10457 18 8 17.1046 8 16Z" fill="black"/>
</svg>

<svg
  width="24"
  height="24"
  viewBox="0 0 24 24"
  xmlns="http://www.w3.org/2000/svg"
>
  <path
    fill-rule="evenodd"
    clip-rule="evenodd"
    d="M11 4a3 3 0 0 0-3 3c0 1.209.371 2.226.845 3.524l.095.26C9.45 12.183 10 13.818 10 16a4 4 0 1 1-2.672-3.774 33.238 33.238 0 0 0-.383-1.074C6.491 9.915 6 8.578 6 7a5 5 0 0 1 10 0c0 2.163-.543 3.792-1.04 5.283l-.011.033c-.5 1.5-.949 2.862-.949 4.684a3 3 0 0 0 6 0 1 1 0 1 1 2 0 5 5 0 1 1-10 0c0-2.162.543-3.792 1.04-5.283l.011-.033c.5-1.5.949-2.862.949-4.684a3 3 0 0 0-3-3zM8 16a2 2 0 1 0-4 0 2 2 0 0 0 4 0z"
  />
</svg>
